X: 901
T: the Fiddler's Contest
R: hornpipe
%S: s:3 b:14(6+4+4)
B: Francis O'Neill: "The Dance Music of Ireland" (1907) #901
Z: Frank Nordberg - http://www.musicaviva.com
F: http://www.musicaviva.com/abc/tunes/ireland/oneill-1001/0901/oneill-1001-0901-1.abc
M: C|
L: 1/8
K: A
"^A"[|](cd) \
| edef ecAc | defg agaf | eagf [1,3 ecAc | BABc B2 :|[2,4 edcB | A2a2A2 :|
"^B"|: (AF) \
| EAAB cAec | FBBc dBfB | defg agaf | edcB AEFG |
| EAAB cAec | BABc defg | agaf edcB | A2a2A2 |]
